!!!COM: Palestrina, Giovanni Perluigi da
!!!OPR: Missa In te Domine speravi (1599)
!!!OMD: Sanctus
!!!OTL: Pleni
**kern	**kern	**kern	**kern
*Ibass	*Itenor	*Itenor	*Icalto
!Bassus	!Tenor 2	!Tenor 1	!Altus
*clefF4	*clefGv2	*clefGv2	*clefG2
*k[]	*k[]	*k[]	*k[]
*C:ion	*C:ion	*C:ion	*C:ion
*M4/2	*M4/2	*M4/2	*M4/2
=35	=35	=35	=35
0r	1d	0r	0r
.	2d	.	.
.	2d	.	.
=36	=36	=36	=36
1G	2e	0r	0r
.	2d	.	.
2G	4B	.	.
.	4c	.	.
2G	4d	.	.
.	4B	.	.
=37	=37	=37	=37
2A	2c	0r	0r
2G	2d	.	.
4E	4G	.	.
4F	4A	.	.
4G	4B	.	.
4E	4c	.	.
=38	=38	=38	=38
2F	2d	0r	1r
2G	2B	.	.
4C	1e	.	1g
4D	.	.	.
4E	.	.	.
4F	.	.	.
=39	=39	=39	=39
2G	2d	1r	2g
2E	1c	.	2g
2F	.	2r	2a
2G	2B	2g	2g
=40	=40	=40	=40
1C	1c	2g	4e
.	.	.	4f
.	.	2g	4g
.	.	.	4e
1r	2r	2a	2f
.	2g	2g	2g
=41	=41	=41	=41
0r	2g	4e	2c
.	.	4f	.
.	2g	4g	2e
.	.	4e	.
.	2a	2f	2d
.	2g	2g	2e
=42	=42	=42	=42
0r	4e	2c	1g
.	4f	.	.
.	4g	2e	.
.	4e	.	.
.	2f	2d	2a
.	2g	2G	2b
=43	=43	=43	=43
0r	4c	4A	1cc
.	4d	4B	.
.	4e	4c	.
.	4f	4d	.
.	2g	4e	2.b
.	.	4f	.
.	2e	[2g	.
.	.	.	8a
.	.	.	8g
=44	=44	=44	=44
1r	1d	2g]	1a
.	.	2f#	.
2r	2.e	1g	1g
2c	.	.	.
.	4f	.	.
=45	=45	=45	=45
2c	1g	0r	1e
2c	.	.	.
2d	1r	.	2f
2c	.	.	2g
=46	=46	=46	=46
4A	0r	1c	1a
4B	.	.	.
4c	.	.	.
4A	.	.	.
2B	.	2d	1g
2c	.	2e	.
=47	=47	=47	=47
4F	1r	1f	2a
4G	.	.	.
4A	.	.	4cc
4B	.	.	4b
1c	2r	[1e	4a
.	.	.	4g
.	2c	.	[2g
=48	=48	=48	=48
1A	2c	2e]	2g]
.	2c	4d	2f#
.	.	4c	.
2G	2d	2B	1g
2E	2c	2e	.
=49	=49	=49	=49
1F	4A	2.c	1.a
.	4B	.	.
.	4c	.	.
.	4A	4d	.
1E	2B	1e	.
.	2c	.	2g
=50	=50	=50	=50
1F	2d	1a	2f
.	1c	.	2e
1G	.	1g	1d
.	2B	.	.
=51	=51	=51	=51
0C	1c	0e	1g
.	2.c	.	2r
.	.	.	[2g
.	4d	.	.
=52	=52	=52	=52
1r	2e	0r	4g]
.	.	.	4a
.	2d	.	2b
2r	2.c	.	2a
4C	.	.	[2g
4D	4B	.	.
=53	=53	=53	=53
4E	4G	0r	4g]
4F	4A	.	4f
2G	2B	.	2d
2E	2c	.	2e
2D	2d	.	2f
=54	=54	=54	=54
1C	2.e	2r	0g
.	.	2.c	.
.	4d	.	.
1C	4e	.	.
.	4f	4d	.
.	2g	2e	.
=55	=55	=55	=55
0r	2f	2d	1a
.	2.e	2.c	.
.	.	.	[1g
.	4d	4B	.
.	2B	2G	.
=56	=56	=56	=56
0r	2c	2A	2g]
.	2.d	2B	2f
.	.	1c	1e
.	4c	.	.
.	[2c	.	.
=57	=57	=57	=57
2r	2c]	1G	1d
2.G	4B	.	.
.	4A	.	.
.	2B	2.d	2r
4A	.	.	.
2B-	2G	.	2g
.	.	4e	.
=58	=58	=58	=58
2A	2r	2f	2a
2.G	2.d	2g	2.b-
.	.	2.d	.
4F	4e	.	4a
2D	2f	.	2f
.	.	4c	.
=59	=59	=59	=59
2E	2e	2B	2g
2F	2.d	2A	2a
2G	.	2B	2g
.	4c	.	.
2F	2A	[2c	[2a
=60	=60	=60	=60
1E	2B	4c]	4a]
.	.	4B	4g
.	2c	2G	1g
1D	1d	1A	.
.	.	.	2f#
=61	=61	=61	=61
0r	2G	2B	[0g
.	2.c	2.e	.
.	4d	4d	.
.	[2e	[2c	.
=62	=62	=62	=62
2r	2e]	2c]	1g]
2.G	4d	4B	.
.	4c	4A	.
.	2.d	2B	2r
4A	.	.	.
2B-	.	2G	2g
.	4e	.	.
=63	=63	=63	=63
2A	2f	2r	2a
2.G	2g	2.d	2.b-
.	2.d	.	.
4F	.	4e	4a
2D	.	2f	2f
.	4c	.	.
=64	=64	=64	=64
2E	2B	2e	2g
2F	2A	2.d	2a
2G	2B	.	2g
.	.	4c	.
2F	[2c	2A	[2a
=65	=65	=65	=65
1E	4c]	2B	4a]
.	4B	.	4g
.	2G	2c	1g
1D	1A	1d	.
.	.	.	2f#
=66	=66	=66	=66
0G	0B	0d	0g
*-	*-	*-	*-
!!!CDT: 1525/^1526/-1594/2/2
!!!OCY: Italia
!!!AGN: Mass (Parody)
!!!AST: renaissance, vocal
!!!ASW: Motet 1532 (Lupus Hellinck)
!!!PWK: Masses, Book 9
!!!RNB: Cadence finals: G,D
!!!YOR: Le Opere Complete, v. 25, p. 131
!!!YOO: Rome, Italy: Fratelli Scalera
!!!END: 1992//
!!!EED: John Miller
!!!YEC: Copyright 2000, John Miller
!!!YEN: United States of America
!!!YEM: Rights to all derivative electronic formats reserved.
!!!YEM: Refer to licensing agreement for further details.
!!!YEM: This file must be accompanied by the licensing agreement.
!!!YEM: A copy of the licensing agreement may be found at http://www.music-cog.ohio-state.edu/HumdrumDatabases/Palestrina/license.txt
!!!EMD: converted to Humdrum by Bret Aarden
